!!!COM: Felix Mendelssohn
!!!CNT: Deutsch
!!!TXO: Deutsch
!!!OTL: Auf der Wanderschaft
!!!LYR: Lenau
!!!OPS: Op. 71
!!!ONM: No. 5
!!!ENC: Daniel Alt & Leigh VanHandel
!!!YOR: Sa2mmtliche Lieder fu2r eine Singstimme 
!!!YOR: Neu revidirt von Dr. L. Benda, Ausgabe fu2r mittlere Stimme
!!!YOR: Braunschweig. Henry Litolff's Verlag. Boston and New York: Arthur P. Schmidt.
!!!ODT: 1847/
**kern	**silbe
*staff1	*
=1-	=1
*clefG2	*
*k[]	*
*M3/4	*
4r	.
8r	.
{8e	{Ich
8c	wand-
8d	-dre
=2	=2
4.e	fort
8a	in’s
8a-	fer-
8an	-ne
=3	=3
2e}	Land;}
{4g	noch
=4	=4
8g	ein-
8ee	-mal
8dd	blickt’
8cc	ich
8b	um
8dd	be-
=5	=5
2g}	-wegt,}
8r	.
{8cc	{und
=6	=6
8.cc	sah,
16b	wie
4.e	sie
8cc	den
=7	=7
8.cc	Mund
16b	ge-
2e}	-regt,
=8	=8
{4ee	und
8dd	wie
8cc	ge-
8b	-win-
8a	-ket
=9	=9
8.a-	in-
16b	-re
4.an}	Hand;}
{8e	und
=10	=10
8.e	sah,
16f	wie
4.e	sie
8e	den
=11	=11
8.e	Mund
16f	ge-
2e}	-regt,}
=12	=12
{4ee	{und
8dd	wie
8cc	ge-
8b	-win-
8a	-ket
=13	=13
4a	ih-
4.cc	|
8g#	-re
=14	=14
4a}	Hand.}
4r	.
4r	.
=15	=15
4r	.
8r	.
{8e	{Dass
8e	ich
8e	mein
=16	=16
4.f	Glu2ck
8f	ver-
8f	-las-
8f	-sen
=17	=17
2f}	muss,}
{4g-	{du
=18	=18
4.g	rau-
8g	-her,
8g	kal-
8g	-ter
=19	=19
8g	Win-
8a-	-de-
2an	-shauch,
=20	=20
4a	ist’s
4b-	nicht
4a	ge-
=21	=21
2a-}	-nug,}
4r	.
=22	=22
{4dd	dass
4dd	du
4dd	mir
=23	=23
4.dd	auch
8cc	en
8b	trei-
8a	-ssest
=24	=24
8a	ih-
8a-	-ren
4b	letz-
4a-	-ten
=25	=25
[2.ee	Gruss?}
=26	=26
2.ee]}	|
=27	=27
4r	.
4r	.
{4e	ent-
=28	=28
4ee	-rei-
8dd	-ssest
8cc	|
8b	ih-
8a	-ren
=29	=29
4a	letz-
4.cc	|
8a-	-ten
=30	=30
2a}	Gruss?}
4r	.
==	==
*-	*-
